X:1
T:Ritornate
T:Ritornate
T:Loreto Vittori
T:Source : Arie a voce sola del Cavalier Loreto Vittorii---Venetia---A.Vincenti---1649. Editor : André Vierendeels (16/10/15).
T:Notes : Original clefs : C1, F4 Figures in BC are notated in original print
C:Vittorius Loreto
%%score 1 { 2 | 3 }
L:1/8
Q:1/4=70
M:4/4
K:F
V:1 treble nm="Soprano" snm="S"
V:2 treble nm="BC" snm="BC"
V:3 bass 
V:1
 z2 z d/c/ BA z d/c/ |:S B2 BA G^F FG | GGBc dB c/A/ B/c/ | ddd_e ff ff/e/ | %4
w: Ri- tor- na- te, ri- tor-|na- te an- ci _ che _|pe- ne à de flar no- vel- * lo'ar- *|do- re che vi- ci- ne'an- co'al mi- o|
w: Ar- re- sta- te, ar- re-|sta- te o- gni _ spe- *|ran- za che di stel- le piu _ ru- *|bel- la, a mi- o pro ca- gni sem-|
 _ee e/d/ e/f/ dd d/c/ d/e/ | c d/c/ B/A/ B/c/ AA A/G/ A/B/ | c/d/ _e/d/ c/B/ A/G/ B2 A2 |1 %7
w: co- re tro- * ve- * re- te, tro- * ve- *|re- te _ le _ ca- * te- ne, tro- * ve- *|re- * te _ le _ ca- * te- *|
w: bian- za, la _ mi- * a fe, la _ mi- *|a fe, _ la _ mi- * a fe, la _ mi- *|* * a _ con- * fi- * an- *|
 G2 z d/c/ BG z d/c/ :|2 G8!fine! |] dd g3 gf_e | ddd_e ffed | _eeef ggfe | _e2 d2 c2 cA | %13
w: ne, ri- tor- na- te, ri tor-|ne.|a- gi- ta- te que- sto|pet- to ea suo scam- po un sol|lam- po non si sco- pra di di-|let- * to, piu sprez-|
w: za, ar- re- sta- te ar- re-|za.|ar- der à sem- pre piu|chia- ra, ch'o- gni pe- na mi fia|ca- ra, pur ch'io sol mie' il mio|be- * ne, * *|
 BBGE ^FFFG | AAAG AA^cc | dccB BBAA | G F2 E/F/ F2 E2 | %17
w: za- to, piu ne- glet- to, piu fa|to co- stan- t'è o- do è d'a-|mor sour' o- gni li- do spi- re-|ro l'au- re Se- re- *|
w: ||||
 D2 z d/c/ BG z d/"^D.S. al Fine senza ripresa"c/ |] %18
w: ne, ri- tor- na- te, ri- tor-|
w: |
V:2
 z8 |: z8 | z8 | z8 | z8 | z8 | z8 |1 z8 :|2 z8 |] z8 | z8 | z8 | z8 | z8 | z8 | z8 | z8 | %17
 z8"^D.S. al Fine senza ripresa" |] %18
V:3
 G,,8- |:"^#" G,,3 A,, B,,C, D,2 | G,,2 G,2 F,2 _E,2 |"^#""^6" D,2 C,2 =B,,4 | C,2 A,2 B,2 G,2 | %5
 A,^F, G,2 D,4 |"^b""^4  3" C,4 D,4 |1 G,,8 :|2 G,,8 |] G,6 A,2 |"^6" B,2 G,2 F,2 D,2 | %11
 C,3 D, _E,2 F,2 |"^4    3" G,4 C,4 |"^#" G,4 D,4 |"^6""^7 6""^#" C,2 B,,2 A,,2 A,G, | %15
"^#" ^F,2 D,2 G,2 A,2 |"^4   3" B,2 G,2 A,4 |"^#" D,4 G,,4 |] %18

